src/pos-icons/star-box-outline.svg

<svg height="24" viewBox="0 0 24 24" width="24" xmlns="http://www.w3.org/2000/svg"><path d="m15.58 17-3.58-2.16-3.58 2.16.95-4.07-3.16-2.73 4.17-.36 1.62-3.84 1.62 3.83 4.17.36-3.16 2.73zm3.42-14a2 2 0 0 1 2 2v14c0 1.11-.9 2-2 2h-14a2 2 0 0 1 -2-2v-14a2 2 0 0 1 2-2zm-14 2v14h14v-14z"/></svg>

<?xml version="1.0" encoding="UTF-8"?><!DOCTYPE svg PUBLIC "-//W3C//DTD SVG 1.1//EN" "http://www.w3.org/Graphics/SVG/1.1/DTD/svg11.dtd"><svg xmlns="http://www.w3.org/2000/svg" xmlns:xlink="http://www.w3.org/1999/xlink" version="1.1" id="mdi-star-box-outline" width="24" height="24" viewBox="0 0 24 24"><path d="M15.58,17L12,14.84L8.42,17L9.37,12.93L6.21,10.2L10.38,9.84L12,6L13.62,9.83L17.79,10.19L14.63,12.92L15.58,17M19,3A2,2 0 0,1 21,5V19C21,20.11 20.1,21 19,21H5A2,2 0 0,1 3,19V5A2,2 0 0,1 5,3H19M5,5V19H19V5H5Z" /></svg>
